X: 11250
T: Dusty Miller, The
R: slip jig
M: 9/8
K: Dmajor
|:A2 AG BG|A2 AG (3Bcd|A2 AG BG|BG G2 (3Bcd:|
|:AD D2 Ad|AD D2 (3Bcd|AD D2 GA|B2 BA (3Bcd:|
|:A2 AG AD|A2 AG (3Bcd|A2 AG AD|BG G2 (3Bcd:|
|:AD D2 AD|AD D2 (3Bcd|AD D2 AD|BG G2 (3Bcd:|

